X:1
T:Du hast dich gegen
T:Jacob Regnart
T:Source : Leipzig---Breitkopf & Härtel---R.Eitner---1895. First print : Deutsch Lieder mit 3 Stimmen---Nürnberg---D.Gerlach---1579. Editor: André Vierendeels (24/10/17). Notes : Original clefs : C1, C3, C4 Editorial accidentals above the staff
T:Du hast dich gegen
T:©
T:©
C:Jacob Regnart
Z:©
%%score [ 1 2 3 ]
L:1/8
Q:1/4=120
M:2/2
K:C
V:1 treble nm="Soprano" snm="S"
V:2 treble nm="Alto" snm="A"
V:3 treble-8 nm="Tenor" snm="T"
V:1
"^1)" G4 G2 A2 | G2 F2 E4 | A4 A2 G2 | F2 E2 D4 |[M:2/4] E4 :: z2 G2 | %6
w: Du hast dich|ge- gen mir|gar freund- lich|wol er- zei-|get,|auch|
w: Wie offt hab|ich dein Hand|in die mei-|ne be- schlos-|sen,|zu|
[M:2/2]"^-natural" A2 B2 c2 A2 | B4 G4 | G2 G2 A2 A2 | A4 ^G4 :: z2 G2 G3 G | G2 G2 A4 | %12
w: nach mei- ner Be-|gir zu|mir nach Lust ge-|nei- get;|doch dies al-|les in Eh-|
w: ei- nem Un- ter-|pfand und|dei- ner Lieb ge-|nos- sen;|doch dies al-|les in Eh-|
 G2 _B2 A2 G2 | F2 E2 D4 |[M:2/4] !fermata!E4 :| %15
w: ren: wer kans uns|wills uns meh-|ren!|
w: ren: wer kans und|wills ins meh-|ren!|
V:2
"^2)""^1)" E4 E2 F2 | E2 D2 C4 | z2 C2 C3 C | C2 C2 B,4 |[M:2/4] C4 :: z2 E2 |[M:2/2] F2 G2 E2 F2 | %7
w: Du hast dich|ge- gen mir|gar freund- lich|wol er- zei-|get,|auch|nach mei- ner Be-|
w: Ach, wie ver-|ke- ren sich|mein in- ner-|li- che Sin-|ne,|wann|ich ge- denck an|
 G4 E2 E2- | E2 D2 F2 E2 | D4 E4 :: z2 E2 E3 E | D2 E2 F4 | E2 D2 C2 B,2 |"^-natural" A,2 C2 B,4 | %14
w: gir zu mir|_ nach Lust ge-|nei- get;|doch dies al-|les in Eh-|ren: wer kans und|wills uns meh-|
w: dich, gantz gar|_ vor Lieb ich|brin- ne;|doch dies al-|les in Eh-|ren: wer kans und|wills uns meh-|
[M:2/4] !fermata!C4 :| %15
w: ren!|
w: ren!|
V:3
"^3)""^1)""^4)" c4 c2 F2 | G2 _B2 A4 | F2 F4 E2 | F2 A2 G4 |[M:2/4] C4 :: z2 c2 | %6
w: Du hast dich|ge- gen mir|gar freund- lich|wol er- zei-|get,|auch|
w: So zweif- felt|mir nit sehr,|wir wölln in|Freu- den ke-|ben,|das|
[M:2/2] A2 G2 c2 d2 | G4 c2 c2- | c2 B2 A3 G | F4 E4 :: z2 C2 c3 c | B2 c2 F4 | C2 G2 A2 E2 | %13
w: nach mei- ner Be-|gir zu mir|_ nach Lust ge-|nei- get;|doch dies al-|les in Eh-|ren: wer kans und|
w: Un- glück wird nicht|mehr uns dörf-|* fen wi- der-|tre- ben;|doch dies al-|les in Eh-|ren: so daffs uns|
 F2 C2 G4 |[M:2/4] !fermata!C4 :| %15
w: wills uns meh-|ren!|
w: nie- mand meh-|ren!|

